!!!!SEGMENT: pl-kc--40102-iii-1-saf--002-027_zielenski-mikolaj--communiones-totius-anni-fantasia.krn
!!!cenid: 16xx:1558
!!!COM: Zieleński, Mikołaj
!!!COM-rismID: pe30013481
!!!CDT: <1611->1611
!!!CNT: Polish
!!!GTL: Communiones totius anni
!!!OTL: Fantasia
!!!OMV: 027
!!!PDT: 1611
!!!AGN:
!!!SMS-siglum: PL-Kc
!!!SMS-shelfmark: 40102 III/1 Saf.
!!!SMS-shelfwork: 002-027 G
!!!SMS-variant:
!!!SMS-altvar:
!!!NIFC-rismSourceID: 990069887
!!!NIFC-islandoraID:
!!!URL-pdf-islandora:
!!!URL-scan: https://cyfrowe.mnk.pl/dlibra/publication/24235/edition/23926/content?ref=desc @EN{Scan on The National Museum in Krakow Website} @PL{Skany w portalu Biblioteka Cyfrowa Muzeum Narodowego w Krakowie}
!!!ONB-nifc: UWAGA: str. 57-58. Numer w źródle: 31. Uwaga: W xml metrum 2/1 do źródłowego C| i odpowiednio 3/1 do 3/2
!!!AIN: 2 organ
!!!key:
**kern	**kern
*part2	*part1
*staff2	*staff1
*I"Organo	*I"Organo
*	*I'org
*Iorgan	*Iorgan
*ICklav	*ICklav
*clefF4	*clefC1
*k[b-]	*k[b-]
*B-:	*B-:
*M2/1	*M2/1
*met(C|)	*met(C|)
=1	=1
!	!LO:TX:a:t=31. Doi Corneti con Fagoto, onero doi Violini con Viola groſſa.
!	!LO:TX:b:t=Fantaſia. Tres voces cum Organo.
0r	2d/
.	4d/
.	4d/
.	2f/
.	2e/
=2-	=2-
2G\	2d/
4G\	4B-/
4G\	4c/
2B-\	4d/
.	4e/
2A\	4f/
.	4c/
=3	=3
2G\	2e/
2F#X\	2.d/
2.G\	.
.	4g/
.	4g/
4E-X\	4g/
=4-	=4-
2.D/	2b-\
.	2a\
4D/	.
2G\	2g/
2D/	2f#X/
=5	=5
2G\	2g/
2F#X\	2a\
2G\	2b-\
!LO:SIC:v:s=4Fny	!
4F#y\	4r
4E\	4dd\
=6-	=6-
2D/	4dd\
.	4dd\
2A\	4ff\
.	4ee\
2B-\	2dd\
2F#y\	2cc\
=7	=7
2.G\	2.b-\
4G\	4b-\
2D/	4a\
.	2dd\
4r	.
4D/	4cc#X\
=8-	=8-
4D/	4.dd\
4D/	.
.	8cc#y\
!LO:TX:t=P:problem=niepełny takt	!
2ryy\	2b-\
2F\	2a\
2E	2cc#y\
=9	=9
2D/	2dd\
2C#X/	2ee\
2.D/	4r
.	4a\
.	4a\
8C#/	4a\
8BB-/	.
=10-	=10-
2AA/	2cc\
2BB-/	2b-\
4F\	2a\
4D/	.
4G\	2g/
*	*
4GG/	.
*custos:D	*custos:f
!!linebreak:original
=11	=11
4.D/	4f/
.	4dd\
8C/	.
4BB-/	4dd\
4GG/	4dd\
2D/	2ff\
2A\	2ee\
=12-	=12-
2B-\	2dd\
2A\	2cc\
2G\	4b-\
.	4g/
2C/	[<2cc\
=13	=13
2D/	4cc\]
.	4b-\
2BB-/	2.b-\
2F\	.
.	8a\
.	8g\
2FF/	2a\
=14-	=14-
1BB-	4.b-\
.	8a\
.	4g/
.	8f/
.	8g/
2d\	8a\
.	8b-\
.	8cc\
.	8dd\
2c\	8ee\
.	8ff\
.	8gg\
.	8ff\
=15	=15
4r	2ff\
4G\	.
4G\	2ee\
4G\	.
2B-\	4.dd\
.	8cc\
2A\	8b-\
.	8a\
.	4.b-\
=16-	=16-
!LO:N:vis=2	!
1G	.
.	16a\
.	16g\
.	8f/
.	8g/
.	8a\
.	8b-\
.	8cc\
.	8a\
!LO:N:vis=2	!
1F#X	4b-\
.	4g/
.	2a\
*custos:G	*custos:dd
!!pagebreak:original
=17	=17
2G\	4r
.	4dd\
2.D/	4dd\
.	4dd\
.	2ff\
4A\	.
4r	2ee\
4C/	.
=18-	=18-
1G	4dd\
.	4g/
.	4b-\
.	4cc\
4r	1dd
4G\	.
4B-\	.
4A\	.
=19	=19
2G\	4r
.	4g/
2GG/	4dd\
.	4ee\
1D	2.ff\
.	4ee\
=20-	=20-
4r	1dd
4D/	.
4F\	.
4G\	.
[<1A	4r
.	4a\
.	4cc\
.	4dd\
=21	=21
4A\]	1ee
4AA/	.
4A\	.
4G\	.
2F\	4r
.	2a\
4E\	.
!	!LO:N:acc=#
4D/	4bn\
=22-	=22-
1A	4cc#X\
.	4ee\
.	4ff\
.	2ee\
1A	.
.	4a\
.	2ff\
=23	=23
1AA	1ee
2D/	1dd
2G\	.
=24-	=24-
4G\	4r
4G\	2dd\
4G\	.
8G\	4dd\
8A\	.
2.B-\	4dd\
!	!LO:N:vis=4
.	2dd\
4BB-/	8dd\
.	8ee\
=25	=25
4BB-/	2.ff\
4BB-/	.
4BB-/	.
4B-\	4dd\
2.E-X\	4ee-X\
.	4dd\
.	4cc\
4E-\	2b-\
=26-	=26-
2F\	.
.	4a\
2.BB-/	4b-\
.	8dd\
.	8ee-y\
.	2ff\
8D\	.
8E-y\	.
2F\	4r
.	8cc\
.	8dd\
=27	=27
4r	2ee-X\
8C/	.
8D/	.
2E-X\	4r
.	8b-\
.	8cc\
4r	2dd\
4BB-/	.
4B-\	4r
8A\	4dd\
8G\	.
=28-	=28-
2.F\	4ff\
.	8ee-y\
.	8dd\
.	2cc\
4FF/	.
4F\	4r
8E-X\	4cc\
8D/	.
[y2C/	4ee-X\
.	8dd\
.	8cc\
=29	=29
!LO:N:xstem:cue	!
4C/]	2b-\
4GG/	.
4G\	4r
8F\	4g/
8E\	.
4D/	4dd\
4E\	8cc\
.	8b-\
4F\	4a\
8E\	4b-\
8D/	.
=30-	=30-
4C/	4cc\
4D/	8b-\
.	8a\
4E\	4g/
8D/	4a\
8C/	.
2.BB-/	4b-\
.	4cc\
.	4dd\
4C/	4ee\
=31	=31
4D/	2.ff\
4E\	.
2F\	.
.	4ee\
2BB-/	2dd\
2AA/	2.cc\
=32-	=32-
1.BB-	.
.	8b-\
.	8a\
.	8b-\
.	8f/
.	8b-\
.	8cc\
.	2.dd\
2BB-/	.
.	8cc\
.	8b-\
=33	=33
0F	2cc\
.	4f/
.	4g/
.	4a\
.	4.ff\
.	8ee\
.	4dd\
=34-	=34-
1F	4cc\
.	4b-\
.	2cc\
1BB-	2b-\
.	[<2dd\
*custos:B	*custos:dd
!!linebreak:original
=35	=35
1B-	4dd\]
.	4cc\
.	4dd\
.	4ee\
1.F	4ff\
.	4f/
.	4a\
.	4b-\
=36-	=36-
.	4cc\
.	4f/
2F\	4cc\
.	4dd\
[y1C	4ee\
.	4cc\
.	4ee\
.	4ff\
=37	=37
!LO:N:vis=4:xstem:cue	!
2C/]	4ee\
.	4dd\
2C/	4cc\
.	4b-\
1.F	2a\
.	1cc\
=38-	=38-
.	.
2F\	2cc\
2BB-/	2.dd\
2B-\	.
.	8cc\
.	8b-\
=39	=39
1.F	4a\
.	4g\
.	4a\
.	4b-\
.	4cc\
.	4a\
2D/	2dd\
=40-	=40-
2.G\	2g/
.	2.gg\
4F\	.
4E-X\	.
4D/	4ff\
4C/	4ee\
4BB-/	4dd\
=41	=41
2AA/	2cc\
2GG/	2b-\
0D	2a\
.	2.dd\
=42-	=42-
.	.
.	4cc\
.	2b-\
1D	1a
=43	=43
1GG	2g/
.	2.dd\
2.G\	.
.	4cc\
.	4b-\
4F\	4a\
=44-	=44-
2.E-X\	4g\
.	4b-\
.	4cc\
4D/	4dd\
2C/	4ee-X\
.	4cc\
!LO:N:acc=#	!
2BBn/	2dd\
=45	=45
0C	2g/
.	2.gg\
.	4ee-X\
.	4ee-\
.	4dd\
=46-	=46-
1CC	2ee-X\
.	1ee-
1GG	.
.	4dd\
.	4cc\
=47-	=47-
0GGl	0ddl
==	==
*-	*-
!!!system-decoration: [(s1,s2)]
!!!RDF**kern: l = terminal long
!!!RDF**kern: > = above
!!!RDF**kern: < = below
!!!ENC: Katarzyna Serwa
!!!END: 2021-12-24
!!!ENC: Andrzej Gręziak
!!!END: 2021-12-21
!!!YEC: Copyright 2022 Narodowy Instytut Fryderyka Chopina (https://polishscores.org)
!!!YEM: Licence CC BY 4.0 (https://creativecommons.org/licenses/by/4.0)
